app/images/Vector.svg

<svg fill="none" height="25" viewBox="0 0 25 25" width="25" xmlns="http://www.w3.org/2000/svg"><path clip-rule="evenodd" d="m13.2795 24.2453c.7164-.0601 1.3303-.1628 2.0012-.3348 2.8797-.7381 5.3666-2.4989 7.012-4.9645 3.1801-4.7653 2.5556-11.098-1.4938-15.14733-.5819-.58193-1.1385-1.03862-1.8206-1.49381-4.514-3.01238-10.46779-2.62754-14.55934.94107-2.20092 1.91961-3.636716 4.61109-4.007757 7.51267-.02532.198-.053543.4873-.062711.6428-.009192.1556-.025896.2885-.037129.2955-.011232.0069-.020424.2826-.020424.6126s.00924.5943.02052.5873.027984.1139.037105.2686c.115441 1.9567.837526 4.0558 1.988596 5.7806 1.63281 2.4468 4.10656 4.2077 6.95378 4.95 1.27536.3325 2.70106.4573 3.98856.3493zm-.2566-1.4889c.5063-.0482.6736-.0683.996-.1196 1.7102-.2721 3.4546-1.0439 4.812-2.1288 2.2114-1.7675 3.559-4.197 3.9167-7.0614.0528-.4224.0606-1.82.0125-2.232-.3401-2.9131-1.6935-5.36986-3.9538-7.17708-1.4791-1.18263-3.3118-1.93522-5.3274-2.18767-.4793-.06005-1.8486-.06005-2.328 0-1.74937.21912-3.27157.77683-4.66796 1.71029-2.18539 1.46088-3.73747 3.68323-4.36534 6.25051-.21825.89255-.27753 1.42045-.27753 2.47195 0 1.0516.05928 1.5795.27753 2.472.36221 1.4811 1.05346 2.8983 1.97247 4.044 1.77326 2.2108 4.19976 3.5603 7.03683 3.9135.2942.0366 1.6455.0682 1.896.0443zm-.5863-3.7315c.2455-.0381.2519-.0439 2.3045-2.1025 2.1631-2.1692 2.0638-2.0555 2.067-2.3685.0028-.2728-.0914-.463-.3129-.6319-.1257-.0959-.258-.1345-.4542-.1325-.3051.0032-.284-.0143-1.7041 1.4039l-1.278 1.2762v-4.7926c0-4.74681-.0004-4.79378-.0483-4.92189-.058-.15485-.2174-.32537-.3782-.40457-.0918-.04524-.1523-.05589-.3175-.05589-.1651 0-.2256.01065-.3175.05589-.1608.0792-.3201.24972-.3781.40457-.0479.12811-.0484.17508-.0484 4.92189v4.7926l-1.278-1.2762c-1.42007-1.4182-1.39892-1.4007-1.70403-1.4039-.19616-.002-.32852.0366-.45423.1325-.22149.1689-.31565.3591-.31286.6319.00317.3132-.09732.1982 2.07705 2.3773 1.74877 1.7526 1.98317 1.9791 2.10217 2.0312.1555.0682.2819.0863.4356.0625zm11.8679-6.7423c0-.3366-.0034-.4743-.0075-.306s-.0041.4438 0 .612c.0041.1683.0075.0306.0075-.306z" fill="#021978" fill-rule="evenodd"/></svg>

<svg width="25" height="25" viewBox="0 0 25 25" fill="none" xmlns="http://www.w3.org/2000/svg">
<path fill-rule="evenodd" clip-rule="evenodd" d="M13.2795 24.2453C13.9959 24.1852 14.6098 24.0825 15.2807 23.9105C18.1604 23.1724 20.6473 21.4116 22.2927 18.946C25.4728 14.1807 24.8483 7.848 20.7989 3.79867C20.217 3.21674 19.6604 2.76005 18.9783 2.30486C14.4643 -0.70752 8.51051 -0.32268 4.41896 3.24593C2.21804 5.16554 0.782244 7.85702 0.411203 10.7586C0.385883 10.9566 0.35766 11.2459 0.348492 11.4014C0.3393 11.557 0.322596 11.6899 0.311363 11.6969C0.300131 11.7038 0.290939 11.9795 0.290939 12.3095C0.290939 12.6395 0.300179 12.9038 0.311459 12.8968C0.322739 12.8898 0.339443 13.0107 0.348564 13.1654C0.464005 15.1221 1.18609 17.2212 2.33716 18.946C3.96997 21.3928 6.44372 23.1537 9.29094 23.896C10.5663 24.2285 11.992 24.3533 13.2795 24.2453ZM13.0229 22.7564C13.5292 22.7082 13.6965 22.6881 14.0189 22.6368C15.7291 22.3647 17.4735 21.5929 18.8309 20.508C21.0423 18.7405 22.3899 16.311 22.7476 13.4466C22.8004 13.0242 22.8082 11.6266 22.7601 11.2146C22.42 8.3015 21.0666 5.84474 18.8063 4.03752C17.3272 2.85489 15.4945 2.1023 13.4789 1.84985C12.9996 1.7898 11.6303 1.7898 11.1509 1.84985C9.40153 2.06897 7.87933 2.62668 6.48294 3.56014C4.29755 5.02102 2.74547 7.24337 2.1176 9.81065C1.89935 10.7032 1.84007 11.2311 1.84007 12.2826C1.84007 13.3342 1.89935 13.8621 2.1176 14.7546C2.47981 16.2357 3.17106 17.6529 4.09007 18.7986C5.86333 21.0094 8.28983 22.3589 11.1269 22.7121C11.4211 22.7487 12.7724 22.7803 13.0229 22.7564ZM12.4366 19.0249C12.6821 18.9868 12.6885 18.981 14.7411 16.9224C16.9042 14.7532 16.8049 14.8669 16.8081 14.5539C16.8109 14.2811 16.7167 14.0909 16.4952 13.922C16.3695 13.8261 16.2372 13.7875 16.041 13.7895C15.7359 13.7927 15.757 13.7752 14.3369 15.1934L13.0589 16.4696V11.677C13.0589 6.93019 13.0585 6.88322 13.0106 6.75511C12.9526 6.60026 12.7932 6.42974 12.6324 6.35054C12.5406 6.3053 12.4801 6.29465 12.3149 6.29465C12.1498 6.29465 12.0893 6.3053 11.9974 6.35054C11.8366 6.42974 11.6773 6.60026 11.6193 6.75511C11.5714 6.88322 11.5709 6.93019 11.5709 11.677V16.4696L10.2929 15.1934C8.87283 13.7752 8.89398 13.7927 8.58887 13.7895C8.39271 13.7875 8.26035 13.8261 8.13464 13.922C7.91315 14.0909 7.81899 14.2811 7.82178 14.5539C7.82495 14.8671 7.72446 14.7521 9.89883 16.9312C11.6476 18.6838 11.882 18.9103 12.001 18.9624C12.1565 19.0306 12.2829 19.0487 12.4366 19.0249ZM24.3045 12.2826C24.3045 11.946 24.3011 11.8083 24.297 11.9766C24.2929 12.1449 24.2929 12.4204 24.297 12.5886C24.3011 12.7569 24.3045 12.6192 24.3045 12.2826Z" fill="#021978"/>
</svg>
